X: 105201
T: MISS LYALL
Q:"Strathspey."
R: Strathspey.
%R:strathspey
Z: 2017 by John Chambers <jc:trillian.mit.edu>
B: Kerr's Merrie Melodies v.1 p.5 s.2 #1
M: C
L: 1/16
K: Am
(c3B) |\
AA,3 A,3uB, vC3vD uE3u^F | vGG3 vB3uA G4 (GB3) |\
AA,3 A,3uB, vC3vD (EB3) | c3A (B^G3) A4 (c3B) |\
AA,3 A,3B, C3DE3^F | GG3 B3A G4 (c3d) |
ve3vcud3uB c3AB3G | (EA3) (^G3B) A4 (A3B) |]\
vAa3 a3ub vg3ug bag^f | ea3 a3b g4 (^f2g2) |\
ea3 a3b g3g bag^f |
ve3vc (dB3) A4 (A2B2) |\
Aa3 a3b g3a bag^f | ea3 a3b g4 (^f3g) |\
(3a2g2^f2 (3g2a2b2 (3e2d2c2 (3B2c2d2 | ve3uc vduB3 A4 |]

%%sep 1 1 500
%%sep 1 1 500

